X: 434
T: Gege laile xinshang le
L: 1/8
M: 2/4
K: D
F A B B [I:setbarnb 1]| 
d> e B A | 
E F B A | 
F4 | 
F A B B | 
d> e B A | 
E F B A | 
B,4 |]

@@@ Tune index: 9308
